dist/svg/u1F6A0.svg

<?xml version="1.0" encoding="UTF-8"?><svg id="Layer_1" xmlns="http://www.w3.org/2000/svg" viewBox="0 0 40 40"><rect y="0" width="40" height="40" transform="translate(40 40) rotate(-180)" style="fill:none;"/><path d="M19.9209,14.75293c-.41406,0-.75-.33594-.75-.75V6.24316c0-.41406,.33594-.75,.75-.75s.75,.33594,.75,.75v7.75977c0,.41406-.33594,.75-.75,.75Z" style="fill:#6b7683;"/><path d="M24.26494,10.80209H15.73506c-.9666,0-1.75022,.78384-1.75022,1.75029h12.03031c0-.96645-.78361-1.75029-1.75022-1.75029Z" style="fill:#333d4b;"/><path d="M3.86328,9.90625c-.35645,0-.67285-.25488-.7373-.61914-.07275-.40723,.19922-.79688,.60693-.86914L35.84619,2.70898c.41016-.06836,.79736,.19922,.86963,.60742,.07275,.40723-.19922,.79688-.60693,.86914L3.99561,9.89453c-.04443,.00781-.08887,.01172-.13232,.01172Z" style="fill:#6b7683;"/><g><circle cx="19.92093" cy="6.24331" r="2.35358" style="fill:#2d3d4d;"/><circle cx="19.92093" cy="6.24331" r="1.17679" style="fill:#cbcfd2;"/></g><g><rect x="5.47261" y="12.55239" width="29.05478" height="21.77891" rx="2.17174" ry="2.17174" style="fill:#cecfcf;"/><rect x="13.40655" y="16.51816" width="13.18689" height="10.65728" rx="1.85789" ry="1.85789" style="fill:#313d4c;"/><path d="M9.35817,16.51816h-3.87744v10.65728h3.87738c1.02611,0,1.85794-.83183,1.85794-1.85794v-6.94144c0-1.02608-.83181-1.85789-1.85789-1.85789Z" style="fill:#313d4c;"/><path d="M30.49833,16.51816h3.87744v10.65728h-3.87738c-1.02611,0-1.85794-.83183-1.85794-1.85794v-6.94144c0-1.02608,.83181-1.85789,1.85789-1.85789Z" style="fill:#313d4c;"/><path d="M5.47261,30.32606h29.05478v2.11711c0,1.04209-.84604,1.88813-1.88813,1.88813H7.36074c-1.04209,0-1.88813-.84604-1.88813-1.88813v-2.11711h0Z" style="fill:#ac7262;"/></g></svg>

<svg id="Layer_1" data-name="Layer 1" xmlns="http://www.w3.org/2000/svg" viewBox="0 0 40 40"><defs><style>.cls-1,.cls-2{fill:none;}.cls-2{stroke:#6b7683;stroke-linecap:round;stroke-miterlimit:10;stroke-width:1.5px;}.cls-3{fill:#333d4b;}.cls-4{fill:#2d3d4d;}.cls-5{fill:#cbcfd2;}.cls-6{fill:#cecfcf;}.cls-7{fill:#313d4c;}.cls-8{fill:#ac7262;}</style></defs><rect class="cls-1" width="40" height="40" transform="translate(40 40) rotate(-180)"/><line class="cls-2" x1="19.921" y1="14.003" x2="19.921" y2="6.243"/><path class="cls-3" d="M24.265,10.8h-8.53a1.75,1.75,0,0,0-1.75,1.75h12.03A1.75,1.75,0,0,0,24.265,10.8Z"/><line class="cls-2" x1="35.978" y1="3.448" x2="3.864" y2="9.157"/><circle class="cls-4" cx="19.921" cy="6.243" r="2.354"/><circle class="cls-5" cx="19.921" cy="6.243" r="1.177"/><rect class="cls-6" x="5.473" y="12.552" width="29.055" height="21.779" rx="2.172"/><rect class="cls-7" x="13.407" y="16.518" width="13.187" height="10.657" rx="1.858"/><path class="cls-7" d="M9.358,16.518H5.481V27.175H9.358a1.858,1.858,0,0,0,1.858-1.858V18.376A1.858,1.858,0,0,0,9.358,16.518Z"/><path class="cls-7" d="M30.5,16.518h3.878V27.175H30.5a1.858,1.858,0,0,1-1.858-1.858V18.376A1.858,1.858,0,0,1,30.5,16.518Z"/><path class="cls-8" d="M5.473,30.326H34.527a0,0,0,0,1,0,0v2.117a1.888,1.888,0,0,1-1.888,1.888H7.361a1.888,1.888,0,0,1-1.888-1.888V30.326A0,0,0,0,1,5.473,30.326Z"/></svg>
